packages/dnb-ui-lib/assets/icons/bankid_qr_medium.svg

<svg width="24" height="24" viewBox="0 0 24 24" fill="none" xmlns="http://www.w3.org/2000/svg">
<path d="M5.25 12.75H11.25V14.25M14.25 14.25V18.75H18.75V14.25H17.25M11.25 17.25V18.75M11.25 5.25V9.75H12.75M15.75 11.25H18.75M0.75 6V2.25C0.75 1.85218 0.908035 1.47064 1.18934 1.18934C1.47064 0.908035 1.85218 0.75 2.25 0.75H6M18 0.75H21.75C22.1478 0.75 22.5294 0.908035 22.8107 1.18934C23.092 1.47064 23.25 1.85218 23.25 2.25V6M23.25 18V21.75C23.25 22.1478 23.092 22.5294 22.8107 22.8107C22.5294 23.092 22.1478 23.25 21.75 23.25H18M6 23.25H2.25C1.85218 23.25 1.47064 23.092 1.18934 22.8107C0.908035 22.5294 0.75 22.1478 0.75 21.75V18M5.25 5.25H8.25V8.25H5.25V5.25ZM5.25 15.75H8.25V18.75H5.25V15.75ZM15.75 5.25H18.75V8.25H15.75V5.25Z" stroke="black" stroke-width="1.5" stroke-linecap="round" stroke-linejoin="round"/>
</svg>

<svg width="24" height="24" viewBox="0 0 24 24" fill="none" xmlns="http://www.w3.org/2000/svg"><path d="M5.25 12.75h6v1.5m3 0v4.5h4.5v-4.5h-1.5m-6 3v1.5m0-13.5v4.5h1.5m3 1.5h3M.75 6V2.25a1.5 1.5 0 011.5-1.5H6m12 0h3.75a1.5 1.5 0 011.5 1.5V6m0 12v3.75a1.5 1.5 0 01-1.5 1.5H18m-12 0H2.25a1.5 1.5 0 01-1.5-1.5V18m4.5-12.75h3v3h-3v-3zm0 10.5h3v3h-3v-3zm10.5-10.5h3v3h-3v-3z" stroke="#000" stroke-width="1.5" stroke-linecap="round" stroke-linejoin="round"/></svg>
